icons/hexagon-cross.svg

<svg xmlns="http://www.w3.org/2000/svg" width="24" height="24" viewBox="0 0 24 24">
  <path d="M16.3173342,1 C17.0224657,1 17.6754933,1.37131518 18.0360686,1.97728201 L23.3914405,10.977282 C23.7664613,11.6075253 23.7664613,12.3924747 23.3914405,13.022718 L18.0360686,22.022718 C17.6754933,22.6286848 17.0224657,23 16.3173342,23 L7.68266576,23 C6.97753431,23 6.32450667,22.6286848 5.96393136,22.022718 L0.608559463,13.022718 C0.233538656,12.3924747 0.233538656,11.6075253 0.608559463,10.977282 L5.96393136,1.97728201 C6.32450667,1.37131518 6.97753431,1 7.68266576,1 L16.3173342,1 Z M9.61289944,8.20970461 C9.22060824,7.90467972 8.65337718,7.93240926 8.29289322,8.29289322 C7.90236893,8.68341751 7.90236893,9.31658249 8.29289322,9.70710678 L8.29289322,9.70710678 L10.585,12 L8.29289322,14.2928932 L8.20970461,14.3871006 C7.90467972,14.7793918 7.93240926,15.3466228 8.29289322,15.7071068 C8.68341751,16.0976311 9.31658249,16.0976311 9.70710678,15.7071068 L9.70710678,15.7071068 L12,13.415 L14.2928932,15.7071068 L14.3871006,15.7902954 C14.7793918,16.0953203 15.3466228,16.0675907 15.7071068,15.7071068 C16.0976311,15.3165825 16.0976311,14.6834175 15.7071068,14.2928932 L15.7071068,14.2928932 L13.415,12 L15.7071068,9.70710678 L15.7902954,9.61289944 C16.0953203,9.22060824 16.0675907,8.65337718 15.7071068,8.29289322 C15.3165825,7.90236893 14.6834175,7.90236893 14.2928932,8.29289322 L14.2928932,8.29289322 L12,10.585 L9.70710678,8.29289322 Z"/>
</svg>

<svg xmlns="http://www.w3.org/2000/svg" viewBox="0 0 24 24">
  <path d="M16.32 1a2 2 0 0 1 1.72.98l5.35 9a2 2 0 0 1 0 2.04l-5.35 9a2 2 0 0 1-1.72.98H7.68a2 2 0 0 1-1.72-.98l-5.35-9a2 2 0 0 1 0-2.04l5.35-9A2 2 0 0 1 7.68 1h8.64zm-6.7 7.21a1 1 0 0 0-1.33 1.5L10.6 12l-2.3 2.3-.08.09a1 1 0 0 0 1.5 1.32L12 13.4l2.3 2.3.09.08a1 1 0 0 0 1.32-1.5L13.4 12l2.3-2.3.08-.09a1 1 0 0 0-1.5-1.32L12 10.6 9.7 8.3z"/>
</svg>
